src/assets/images/github-planet-2.svg

<svg height="163" viewBox="0 0 164 163" width="164" xmlns="http://www.w3.org/2000/svg" xmlns:xlink="http://www.w3.org/1999/xlink"><defs><path id="a" d="m7 83.5c0 45.011309 35.81712 81.5 80 81.5s80-36.488691 80-81.5-35.81712-81.5-80-81.5-80 36.488691-80 81.5z"/><filter id="b" height="108%" width="108.1%" x="-4.1%" y="-4%"><feOffset dx="4" dy="-13" in="SourceAlpha" result="shadowOffsetInner1"/><feComposite in="shadowOffsetInner1" in2="SourceAlpha" k2="-1" k3="1" operator="arithmetic" result="shadowInnerInner1"/><feColorMatrix in="shadowInnerInner1" type="matrix" values="0 0 0 0 0   0 0 0 0 0   0 0 0 0 0  0 0 0 0.169299139 0"/></filter></defs><g fill="none" fill-rule="evenodd" transform="translate(-3 -2)"><use fill="#51e0c1" fill-rule="evenodd" xlink:href="#a"/><use fill="#000" filter="url(#b)" xlink:href="#a"/><path d="m9 83.5c0-43.91497 34.9300908-79.5 78-79.5 43.069909 0 78 35.58503 78 79.5s-34.930091 79.5-78 79.5c-43.0699092 0-78-35.58503-78-79.5z" stroke="#000" stroke-opacity=".08" stroke-width="4"/><g fill="#000" fill-opacity=".120952" transform="translate(24 13)"><path d="m5.16087968 39.8195484c-.31979675 5.3258348 2.14549817 9.8594415 5.50639032 10.1260941 3.3608921.2666527 6.34468-3.8346248 6.6644768-9.1604596.3197967-5.3258347-2.1454982-9.8594415-5.5063903-10.1260941-3.36089218-.2666526-6.34468007 3.8346249-6.66447682 9.1604596zm4.39656918 15.0596192c2.51448354.4019973 7.01417704-.4794211 8.51718494-7.7890722-4.0645076 6.0217021-7.9226047 5.7939391-10.37935448 4.5586595-2.45674974-1.2352796-3.02369393-3.2324741-4.0456347-7.784555-.5986858 7.6908224 3.39332073 10.6129703 5.90780424 11.0149677z" transform="matrix(.95630476 .2923717 -.2923717 .95630476 12.987764 -1.29666)"/><path d="m104.712503 66.1902794c-.079767 10.8564186 5.761366 19.8102217 13.046536 19.9988789 7.285169.1886572 13.25563-8.4592721 13.335396-19.3156908.079767-10.8564187-5.761366-19.8102217-13.046536-19.9988789-7.285169-.1886572-13.25563 8.4592721-13.335396 19.3156908zm11.216502 30.1411002c5.473682.55265 15.085385-1.7114104 17.49174-16.7235604-8.083084 12.6640687-16.43703 12.6066949-21.881615 10.3546361s-6.897302-6.2510417-9.625023-15.3940776c-.410648 15.6917004 8.541215 21.2103519 14.014898 21.7630019z"/><path d="m68.6977295 124.847416c-8.4723841 0-15.3406084-4.272535-15.3406084-9.542974s6.8682243-9.542974 15.3406084-9.542974c8.472384 0 15.3406084 4.272535 15.3406084 9.542974s-6.8682244 9.542974-15.3406084 9.542974zm-1.1735167 5.968595c-5.7793611 0-14.5266373-2.546713-17.5345018-12.66579 7.006976 8.86097 13.9490341 8.86097 17.5345018 8.86097s13.5561973 0 20.9635007-9.881858c-4.8646841 12.056646-15.1841396 13.686678-20.9635007 13.686678z"/><path d="m57.0176671 20.6258345c8.6314402-4.2637273 13.3562798-11.69050314 10.5532247-16.58816809-2.8030552-4.89766495-12.0725452-5.41157296-20.7039854-1.14784567-8.6314402 4.2637273-13.3562798 11.69050306-10.5532246 16.58816806 2.8030552 4.8976649 12.0725451 5.411573 20.7039853 1.1478457zm-11.4256563 9.9782019c8.178546.2886178 16.8407867-6.0624747 22.1872981-14.1525449-7.7764179 8.0234211-17.4190111 10.0525527-22.2282706 10.0125844-4.8092595-.0399684-11.1283649-1.0669445-14.4438954-9.5598988 1.770476 11.0481319 6.3063219 13.4112415 14.4848679 13.6998593z"/></g><g transform="matrix(-.25881905 -.96592583 .96592583 -.25881905 8.818363 118.301222)"><path d="m15.5 18c8.5604136 0 15.5-1.3943639 15.5-7.3024549 0-5.90809103-2.0194598-10.6975451-15.5-10.6975451-13.48054021 0-15.5 4.78945407-15.5 10.6975451 0 5.908091 6.93958638 7.3024549 15.5 7.3024549z" fill="#51e0c1"/><ellipse cx="15.253065" cy="5.130306" fill="#000" fill-opacity=".129076" rx="11.326923" ry="3"/></g><g transform="matrix(.83867057 .54463904 -.54463904 .83867057 117.409273 .234827)"><path d="m19.3018184 22.872834c10.6601 0 19.3018184-1.7528223 19.3018184-9.1797456 0-7.42692321-2.51479-13.44763408-19.3018184-13.44763408-16.78702832 0-19.3018184 6.02071087-19.3018184 13.44763408 0 7.4269233 8.64171846 9.1797456 19.3018184 9.1797456z" fill="#51e0c1"/><ellipse cx="19.772595" cy="7.321981" fill="#000" fill-opacity=".129076" rx="14.123282" ry="3.842181"/></g></g></svg>

<?xml version="1.0" encoding="UTF-8"?>
<svg width="164px" height="163px" viewBox="0 0 164 163" version="1.1" xmlns="http://www.w3.org/2000/svg" xmlns:xlink="http://www.w3.org/1999/xlink">
    <!-- Generator: Sketch 43.2 (39069) - http://www.bohemiancoding.com/sketch -->
    <title>Planet</title>
    <desc>Created with Sketch.</desc>
    <defs>
        <path d="M7,83.5 C7,128.511309 42.81712,165 87,165 C131.18288,165 167,128.511309 167,83.5 C167,38.488691 131.18288,2 87,2 C42.81712,2 7,38.488691 7,83.5 Z" id="path-1"></path>
        <filter x="-4.1%" y="-4.0%" width="108.1%" height="108.0%" filterUnits="objectBoundingBox" id="filter-2">
            <feOffset dx="4" dy="-13" in="SourceAlpha" result="shadowOffsetInner1"></feOffset>
            <feComposite in="shadowOffsetInner1" in2="SourceAlpha" operator="arithmetic" k2="-1" k3="1" result="shadowInnerInner1"></feComposite>
            <feColorMatrix values="0 0 0 0 0   0 0 0 0 0   0 0 0 0 0  0 0 0 0.169299139 0" type="matrix" in="shadowInnerInner1"></feColorMatrix>
        </filter>
    </defs>
    <g id="Illu" stroke="none" stroke-width="1" fill="none" fill-rule="evenodd">
        <g id="BG" transform="translate(-138.000000, -825.000000)">
            <g id="Top">
                <g id="Planet" transform="translate(135.000000, 823.000000)">
                    <g>
                        <use fill="#51E0C1" fill-rule="evenodd" xlink:href="#path-1"></use>
                        <use fill="black" fill-opacity="1" filter="url(#filter-2)" xlink:href="#path-1"></use>
                        <path stroke-opacity="0.08" stroke="#000000" stroke-width="4" d="M9,83.5 C9,39.58503 43.9300908,4 87,4 C130.069909,4 165,39.58503 165,83.5 C165,127.41497 130.069909,163 87,163 C43.9300908,163 9,127.41497 9,83.5 Z"></path>
                    </g>
                    <g id="Craters-2" transform="translate(24.000000, 13.000000)" fill-opacity="0.120952219" fill="#000000">
                        <path d="M5.16087968,39.8195484 C4.84108293,45.1453832 7.30637785,49.6789899 10.66727,49.9456425 C14.0281621,50.2122952 17.01195,46.1110177 17.3317468,40.7851829 C17.6515435,35.4593482 15.1862486,30.9257414 11.8253565,30.6590888 C8.46446432,30.3924362 5.48067643,34.4937137 5.16087968,39.8195484 L5.16087968,39.8195484 L5.16087968,39.8195484 Z M9.55744886,54.8791676 C12.0719324,55.2811649 16.5716259,54.3997465 18.0746338,47.0900954 C14.0101262,53.1117975 10.1520291,52.8840345 7.69527932,51.6487549 C5.23852958,50.4134753 4.67158539,48.4162808 3.64964462,43.8641999 C3.05095882,51.5550223 7.04296535,54.4771702 9.55744886,54.8791676 L9.55744886,54.8791676 Z" id="Crater-4" transform="translate(10.831960, 42.803249) rotate(17.000000) translate(-10.831960, -42.803249) "></path>
                        <path d="M104.712503,66.1902794 C104.632736,77.046698 110.473869,86.0005011 117.759039,86.1891583 C125.044208,86.3778155 131.014669,77.7298862 131.094435,66.8734675 C131.174202,56.0170488 125.333069,47.0632458 118.047899,46.8745886 C110.76273,46.6859314 104.792269,55.3338607 104.712503,66.1902794 L104.712503,66.1902794 L104.712503,66.1902794 Z M115.929005,96.3313796 C121.402687,96.8840296 131.01439,94.6199692 133.420745,79.6078192 C125.337661,92.2718879 116.983715,92.2145141 111.53913,89.9624553 C106.094545,87.7103965 104.641828,83.7114136 101.914107,74.5683777 C101.503459,90.2600781 110.455322,95.7787296 115.929005,96.3313796 L115.929005,96.3313796 Z" id="Crater-6"></path>
                        <path d="M68.6977295,124.847416 C60.2253454,124.847416 53.3571211,120.574881 53.3571211,115.304442 C53.3571211,110.034003 60.2253454,105.761468 68.6977295,105.761468 C77.1701135,105.761468 84.0383379,110.034003 84.0383379,115.304442 C84.0383379,120.574881 77.1701135,124.847416 68.6977295,124.847416 Z M67.5242128,130.816011 C61.7448517,130.816011 52.9975755,128.269298 49.989711,118.150221 C56.996687,127.011191 63.9387451,127.011191 67.5242128,127.011191 C71.1096805,127.011191 81.0804101,127.011191 88.4877135,117.129333 C83.6230294,129.185979 73.3035739,130.816011 67.5242128,130.816011 Z" id="Crater-5"></path>
                        <path d="M57.0176671,20.6258345 C65.6491073,16.3621072 70.3739469,8.93533136 67.5708918,4.03766641 C64.7678366,-0.859998537 55.4983466,-1.37390655 46.8669064,2.88982074 C38.2354662,7.15354804 33.5106266,14.5803238 36.3136818,19.4779888 C39.116737,24.3756537 48.3862269,24.8895618 57.0176671,20.6258345 L57.0176671,20.6258345 Z M45.5920108,30.6040364 C53.7705568,30.8926542 62.4327975,24.5415617 67.7793089,16.4514915 C60.002891,24.4749126 50.3602978,26.5040442 45.5510383,26.4640759 C40.7417788,26.4241075 34.4226734,25.3971314 31.1071429,16.9041771 C32.8776189,27.952309 37.4134648,30.3154186 45.5920108,30.6040364 L45.5920108,30.6040364 Z" id="Crater"></path>
                    </g>
                    <g id="Pump-3" transform="translate(13.500000, 101.000000) rotate(255.000000) translate(-13.500000, -101.000000) translate(-2.000000, 92.000000)">
                        <path d="M15.5,18 C24.0604136,18 31,16.6056361 31,10.6975451 C31,4.78945407 28.9805402,-9.45140064e-16 15.5,0 C2.01945979,9.58581314e-16 0,4.78945407 0,10.6975451 C0,16.6056361 6.93958638,18 15.5,18 Z" id="Oval-27" fill="#51E0C1"></path>
                        <ellipse id="Oval-28" fill-opacity="0.129076087" fill="#000000" cx="15.253065" cy="5.13030615" rx="11.3269231" ry="3"></ellipse>
                    </g>
                    <g id="Pump-4" transform="translate(127.500000, 20.500000) rotate(33.000000) translate(-127.500000, -20.500000) translate(108.000000, 9.000000)">
                        <path d="M19.3018184,22.872834 C29.9619184,22.872834 38.6036368,21.1200117 38.6036368,13.6930884 C38.6036368,6.26616519 36.0888468,0.245454319 19.3018184,0.245454319 C2.51479008,0.245454319 1.93732147e-13,6.26616519 1.93732147e-13,13.6930884 C1.93732147e-13,21.1200117 8.64171846,22.872834 19.3018184,22.872834 Z" id="Oval-27" fill="#51E0C1"></path>
                        <ellipse id="Oval-28" fill-opacity="0.129076087" fill="#000000" cx="19.7725945" cy="7.32198111" rx="14.1232818" ry="3.84218117"></ellipse>
                    </g>
                </g>
            </g>
        </g>
    </g>
</svg>
